material/.icons/material/bed-double-outline.svg

<svg xmlns="http://www.w3.org/2000/svg" viewBox="0 0 24 24"><path d="M8 5c-.5 0-1 .21-1.39.6S6 6.45 6 7v3c-.53 0-1 .19-1.41.59S4 11.47 4 12v5h1.34L6 19h1l.69-2h8.67l.64 2h1l.66-2H20v-5c0-.53-.19-1-.59-1.41S18.53 10 18 10V7c0-.55-.2-1-.61-1.4S16.5 5 16 5M8 7h3v3H8m5-3h3v3h-3m-7 2h12v3H6z"/></svg>

<?xml version="1.0" encoding="UTF-8"?><!DOCTYPE svg PUBLIC "-//W3C//DTD SVG 1.1//EN" "http://www.w3.org/Graphics/SVG/1.1/DTD/svg11.dtd"><svg xmlns="http://www.w3.org/2000/svg" xmlns:xlink="http://www.w3.org/1999/xlink" version="1.1" id="mdi-bed-double-outline" width="24" height="24" viewBox="0 0 24 24"><path d="M8 5C7.5 5 7 5.21 6.61 5.6S6 6.45 6 7V10C5.47 10 5 10.19 4.59 10.59S4 11.47 4 12V17H5.34L6 19H7L7.69 17H16.36L17 19H18L18.66 17H20V12C20 11.47 19.81 11 19.41 10.59S18.53 10 18 10V7C18 6.45 17.8 6 17.39 5.6S16.5 5 16 5M8 7H11V10H8M13 7H16V10H13M6 12H18V15H6Z" /></svg>
